static/images/past-sponsors/filtra.svg

<svg fill="none" height="227" viewBox="0 0 605 227" width="605" xmlns="http://www.w3.org/2000/svg"><path d="m83.6719 70.547 66.5251 101.374c.628.963 3.346 1.925 3.242 1.139l-9.829-70.908c-.602-4.3598-.115-8.8168 1.41-12.8991s4.031-7.6381 7.253-10.291l24.473-20.079c.527-.4455 4.551-8.9363-4.364-8.2913l-76.0697.5559c-15.6196.1839-20.43 7.5779-12.6404 19.3995z" fill="#282a29"/><g fill="#c2380e"><path d="m494.97 156.246c2.222 0 4.343-.051 6.363-.152 2.019-.101 3.635-.252 4.847-.454v-17.118c-.909-.202-2.272-.404-4.09-.606s-3.484-.303-4.999-.303c-2.121 0-4.141.152-6.059.455-1.818.202-3.434.656-4.848 1.363s-2.524 1.667-3.332 2.878c-.808 1.212-1.212 2.727-1.212 4.545 0 3.535 1.161 6.009 3.484 7.423 2.424 1.312 5.706 1.969 9.846 1.969zm-1.818-66.0468c6.666 0 12.22.7574 16.664 2.2723 4.443 1.5148 7.978 3.6861 10.603 6.5137 2.727 2.8278 4.646 6.2618 5.757 10.3008 1.111 4.04 1.666 8.534 1.666 13.482v46.96c-3.232.707-7.726 1.515-13.482 2.424-5.756 1.009-12.724 1.514-20.905 1.514-5.15 0-9.846-.454-14.088-1.363-4.14-.909-7.725-2.373-10.755-4.393-3.029-2.121-5.352-4.847-6.968-8.18s-2.424-7.423-2.424-12.27c0-4.646.909-8.584 2.727-11.816 1.919-3.231 4.443-5.807 7.574-7.725 3.131-1.919 6.716-3.283 10.755-4.091 4.04-.908 8.231-1.363 12.573-1.363 2.929 0 5.504.152 7.726.455 2.323.202 4.191.505 5.605.908v-2.12c0-3.838-1.161-6.918-3.484-9.241-2.323-2.322-6.362-3.484-12.119-3.484-3.837 0-7.624.303-11.361.909-3.737.505-6.968 1.262-9.695 2.272l-2.878-18.1777c1.313-.404 2.929-.8079 4.847-1.2119 2.02-.5049 4.191-.9089 6.514-1.2118 2.323-.404 4.747-.707 7.271-.9089 2.626-.303 5.252-.4545 7.877-.4545z"/><path d="m454.115 112.315c-2.02-.505-4.393-1.009-7.12-1.514-2.727-.606-5.655-.909-8.786-.909-1.414 0-3.13.151-5.15.454-1.919.202-3.383.455-4.393.758v60.896h-22.571v-75.4388c4.039-1.4139 8.786-2.7267 14.239-3.9386 5.555-1.3129 11.715-1.9693 18.481-1.9693 1.212 0 2.676.101 4.393.303 1.717.101 3.434.3029 5.151.6059 1.716.202 3.433.505 5.15.9089 1.717.303 3.181.7069 4.393 1.2119z"/><path d="m340.028 72.4754 22.571-3.6356v23.4799h27.115v18.7843h-27.115v28.024c0 4.747.808 8.534 2.424 11.361 1.716 2.828 5.099 4.242 10.149 4.242 2.424 0 4.898-.202 7.423-.606 2.625-.505 4.999-1.162 7.119-1.969l3.181 17.572c-2.726 1.11-5.756 2.07-9.089 2.878-3.332.808-7.422 1.212-12.27 1.212-6.16 0-11.26-.808-15.299-2.424-4.04-1.717-7.272-4.04-9.695-6.968-2.424-3.03-4.141-6.666-5.151-10.907-.909-4.242-1.363-8.938-1.363-14.088z"/><path d="m326.666 173.515c-6.564-.101-11.916-.808-16.057-2.121-4.039-1.313-7.271-3.13-9.695-5.453-2.322-2.424-3.938-5.302-4.847-8.635-.808-3.433-1.212-7.271-1.212-11.512v-87.7092l22.571-3.6356v86.7998c0 2.02.151 3.838.454 5.453.303 1.616.859 2.98 1.667 4.09.909 1.111 2.171 2.02 3.787 2.727s3.787 1.162 6.514 1.364z"/><path d="m224.142 54.4492c4.242 0 7.726.3535 10.452 1.0604 2.828.7069 5.201 1.4643 7.12 2.2722l-3.938 17.7236c-1.616-.7069-3.434-1.2119-5.454-1.5149-1.919-.3029-3.888-.4544-5.908-.4544-2.726 0-5.049.4039-6.968 1.2119-1.818.7069-3.282 1.7168-4.393 3.0296-1.01 1.3129-1.767 2.8782-2.272 4.696-.404 1.8178-.606 3.7871-.606 5.9078v3.9386h27.873v18.784h-27.873v60.896h-22.571v-83.9215c0-10.3009 2.878-18.481 8.635-24.5403 5.857-6.0593 14.491-9.089 25.903-9.089zm51.504 117.5508h-22.571v-79.68h22.571zm2.121-102.7054c0 4.1405-1.363 7.4226-4.09 9.8464-2.626 2.3227-5.756 3.4841-9.392 3.4841-3.635 0-6.817-1.1614-9.543-3.4841-2.626-2.4238-3.939-5.7059-3.939-9.8464 0-4.1406 1.313-7.3722 3.939-9.695 2.726-2.4237 5.908-3.6356 9.543-3.6356 3.636 0 6.766 1.2119 9.392 3.6356 2.727 2.3228 4.09 5.5544 4.09 9.695z"/></g></svg>

<svg width="605" height="227" viewBox="0 0 605 227" fill="none" xmlns="http://www.w3.org/2000/svg">
<path d="M83.6719 70.547L150.197 171.921C150.825 172.884 153.543 173.846 153.439 173.06L143.61 102.152C143.008 97.7922 143.495 93.3352 145.02 89.2529C146.545 85.1706 149.051 81.6148 152.273 78.9619L176.746 58.8829C177.273 58.4374 181.297 49.9466 172.382 50.5916L96.3123 51.1475C80.6927 51.3314 75.8823 58.7254 83.6719 70.547Z" fill="#282A29"/>
<path d="M494.97 156.246C497.192 156.246 499.313 156.195 501.333 156.094C503.352 155.993 504.968 155.842 506.18 155.64V138.522C505.271 138.32 503.908 138.118 502.09 137.916C500.272 137.714 498.606 137.613 497.091 137.613C494.97 137.613 492.95 137.765 491.032 138.068C489.214 138.27 487.598 138.724 486.184 139.431C484.77 140.138 483.66 141.098 482.852 142.309C482.044 143.521 481.64 145.036 481.64 146.854C481.64 150.389 482.801 152.863 485.124 154.277C487.548 155.589 490.83 156.246 494.97 156.246ZM493.152 90.1992C499.818 90.1992 505.372 90.9566 509.816 92.4715C514.259 93.9863 517.794 96.1576 520.419 98.9852C523.146 101.813 525.065 105.247 526.176 109.286C527.287 113.326 527.842 117.82 527.842 122.768V169.728C524.61 170.435 520.116 171.243 514.36 172.152C508.604 173.161 501.636 173.666 493.455 173.666C488.305 173.666 483.609 173.212 479.367 172.303C475.227 171.394 471.642 169.93 468.612 167.91C465.583 165.789 463.26 163.063 461.644 159.73C460.028 156.397 459.22 152.307 459.22 147.46C459.22 142.814 460.129 138.876 461.947 135.644C463.866 132.413 466.39 129.837 469.521 127.919C472.652 126 476.237 124.636 480.276 123.828C484.316 122.92 488.507 122.465 492.849 122.465C495.778 122.465 498.353 122.617 500.575 122.92C502.898 123.122 504.766 123.425 506.18 123.828V121.708C506.18 117.87 505.019 114.79 502.696 112.467C500.373 110.145 496.334 108.983 490.577 108.983C486.74 108.983 482.953 109.286 479.216 109.892C475.479 110.397 472.248 111.154 469.521 112.164L466.643 93.9863C467.956 93.5823 469.572 93.1784 471.49 92.7744C473.51 92.2695 475.681 91.8655 478.004 91.5626C480.327 91.1586 482.751 90.8556 485.275 90.6537C487.901 90.3507 490.527 90.1992 493.152 90.1992Z" fill="#C2380E"/>
<path d="M454.115 112.315C452.095 111.81 449.722 111.306 446.995 110.801C444.268 110.195 441.34 109.892 438.209 109.892C436.795 109.892 435.079 110.043 433.059 110.346C431.14 110.548 429.676 110.801 428.666 111.104V172H406.095V96.5612C410.134 95.1473 414.881 93.8345 420.334 92.6226C425.889 91.3097 432.049 90.6533 438.815 90.6533C440.027 90.6533 441.491 90.7543 443.208 90.9563C444.925 91.0573 446.642 91.2592 448.359 91.5622C450.075 91.7642 451.792 92.0672 453.509 92.4711C455.226 92.7741 456.69 93.178 457.902 93.683L454.115 112.315Z" fill="#C2380E"/>
<path d="M340.028 72.4754L362.599 68.8398V92.3197H389.714V111.104H362.599V139.128C362.599 143.875 363.407 147.662 365.023 150.489C366.739 153.317 370.122 154.731 375.172 154.731C377.596 154.731 380.07 154.529 382.595 154.125C385.22 153.62 387.594 152.963 389.714 152.156L392.895 169.728C390.169 170.838 387.139 171.798 383.806 172.606C380.474 173.414 376.384 173.818 371.536 173.818C365.376 173.818 360.276 173.01 356.237 171.394C352.197 169.677 348.965 167.354 346.542 164.426C344.118 161.396 342.401 157.76 341.391 153.519C340.482 149.277 340.028 144.581 340.028 139.431V72.4754Z" fill="#C2380E"/>
<path d="M326.666 173.515C320.102 173.414 314.75 172.707 310.609 171.394C306.57 170.081 303.338 168.264 300.914 165.941C298.592 163.517 296.976 160.639 296.067 157.306C295.259 153.873 294.855 150.035 294.855 145.794V58.0848L317.426 54.4492V141.249C317.426 143.269 317.577 145.087 317.88 146.702C318.183 148.318 318.739 149.682 319.547 150.792C320.456 151.903 321.718 152.812 323.334 153.519C324.95 154.226 327.121 154.681 329.848 154.883L326.666 173.515Z" fill="#C2380E"/>
<path d="M224.142 54.4492C228.384 54.4492 231.868 54.8027 234.594 55.5096C237.422 56.2165 239.795 56.9739 241.714 57.7818L237.776 75.5054C236.16 74.7985 234.342 74.2935 232.322 73.9905C230.403 73.6876 228.434 73.5361 226.414 73.5361C223.688 73.5361 221.365 73.94 219.446 74.748C217.628 75.4549 216.164 76.4648 215.053 77.7776C214.043 79.0905 213.286 80.6558 212.781 82.4736C212.377 84.2914 212.175 86.2607 212.175 88.3814V92.32H240.048V111.104H212.175V172H189.604V88.0785C189.604 77.7776 192.482 69.5975 198.239 63.5382C204.096 57.4789 212.73 54.4492 224.142 54.4492ZM275.646 172H253.075V92.32H275.646V172ZM277.767 69.2946C277.767 73.4351 276.404 76.7172 273.677 79.141C271.051 81.4637 267.921 82.6251 264.285 82.6251C260.65 82.6251 257.468 81.4637 254.742 79.141C252.116 76.7172 250.803 73.4351 250.803 69.2946C250.803 65.154 252.116 61.9224 254.742 59.5996C257.468 57.1759 260.65 55.964 264.285 55.964C267.921 55.964 271.051 57.1759 273.677 59.5996C276.404 61.9224 277.767 65.154 277.767 69.2946Z" fill="#C2380E"/>
</svg>
